dist/svg/icons/mail-read.svg

<svg height="16" width="14" xmlns="http://www.w3.org/2000/svg" viewBox="0 0 14 16">
  <path d="M6 5H4v-1h2v1z m3 1H4v1h5v-1z m5-0.48v8.48c0 0.55-0.45 1-1 1H1c-0.55 0-1-0.45-1-1V5.52c0-0.33 0.16-0.63 0.42-0.81l1.58-1.13v-0.58c0-0.55 0.45-1 1-1h1.2L7 0l2.8 2h1.2c0.55 0 1 0.45 1 1v0.58l1.58 1.13c0.27 0.19 0.42 0.48 0.42 0.81zM3 7.5l4 2.5 4-2.5V3H3v4.5zM1 13.5l4.5-3L1 7.5v6z m11 0.5L7 11 2 14h10z m1-6.5L8.5 10.5l4.5 3V7.5z" />
</svg>

<svg xmlns="http://www.w3.org/2000/svg" width="14" height="16" viewBox="0 0 14 16"><path d="M6 5H4V4h2v1zm3 1H4v1h5V6zm5-.48V14c0 .55-.45 1-1 1H1c-.55 0-1-.45-1-1V5.52c0-.33.16-.63.42-.81L2 3.58V3c0-.55.45-1 1-1h1.2L7 0l2.8 2H11c.55 0 1 .45 1 1v.58l1.58 1.13c.27.19.42.48.42.81zM3 7.5L7 10l4-2.5V3H3v4.5zm-2 6l4.5-3-4.5-3v6zm11 .5l-5-3-5 3h10zm1-6.5l-4.5 3 4.5 3v-6z"/></svg>
